assets/svg/coin_icons/Wownero.svg

<svg fill="none" height="24" viewBox="0 0 24 24" width="24" xmlns="http://www.w3.org/2000/svg"><path d="m12 23.8456c6.5421 0 11.8456-5.3035 11.8456-11.8456 0-6.54222-5.3035-11.845703-11.8456-11.845703-6.54222 0-11.845703 5.303483-11.845703 11.845703 0 6.5421 5.303483 11.8456 11.845703 11.8456z" fill="#fff"/><path d="m12 24c-6.61736 0-12-5.3826-12-12 0-6.61736 5.38264-12 12-12 6.6174 0 12 5.38264 12 12 0 6.6174-5.3826 12-12 12zm0-23.672026c-6.44373 0-11.672026 5.247586-11.672026 11.672026 0 6.4244 5.247586 11.672 11.672026 11.672 6.4244 0 11.672-5.2476 11.672-11.672 0-6.42444-5.2283-11.672026-11.672-11.672026z" fill="#d0509d"/><path d="m11.9995.154297c-5.24755 0-9.70414 3.434083-11.247547 8.160773h5.980707v7.42763l5.22834-5.672h.0771l5.2283 5.6913v-7.44693h5.9807c-1.5434-4.72669-6-8.160773-11.2476-8.160773z" fill="#ffcd05"/><path d="m6.56007 16.1672v-7.67845h-6.038586l.077171-.21222c1.601285-4.9582 6.192925-8.27653 11.401945-8.27653 5.209 0 9.8006 3.31833 11.4019 8.27653l.0772.21222h-6.0386v7.67845l-5.4405-5.8842zm5.34403-6.2508h.2122l4.9968 5.4212v-7.17683h5.9229c-1.6399-4.6881-6.0386-7.832796-11.0354-7.832796s-9.39551 3.144696-11.035386 7.832796h5.922826v7.17683z" fill="#d0509d"/><path d="m18.2473 18.2508-1.6978-1.8328-4.553-4.9389-4.5531 4.9389-1.69775 1.8328v-2.4888-6.2122h-4.14791c-.19292.8103-.30868 1.6592-.30868 2.5466 0 5.9036 4.78457 10.7074 10.70744 10.7074 5.9228 0 10.7074-4.7845 10.7074-10.7074 0-.8681-.1158-1.717-.3087-2.5466h-4.1672v6.2122 2.4888z" fill="#d0519d"/></svg>

<svg width="24" height="24" viewBox="0 0 24 24" fill="none" xmlns="http://www.w3.org/2000/svg">
<path d="M12 23.8456C18.5421 23.8456 23.8456 18.5421 23.8456 12C23.8456 5.45778 18.5421 0.154297 12 0.154297C5.45778 0.154297 0.154297 5.45778 0.154297 12C0.154297 18.5421 5.45778 23.8456 12 23.8456Z" fill="white"/>
<path d="M12 24C5.38264 24 0 18.6174 0 12C0 5.38264 5.38264 0 12 0C18.6174 0 24 5.38264 24 12C24 18.6174 18.6174 24 12 24ZM12 0.327974C5.55627 0.327974 0.327974 5.57556 0.327974 12C0.327974 18.4244 5.57556 23.672 12 23.672C18.4244 23.672 23.672 18.4244 23.672 12C23.672 5.57556 18.4437 0.327974 12 0.327974Z" fill="#D0509D"/>
<path d="M11.9995 0.154297C6.75195 0.154297 2.29536 3.58838 0.751953 8.31507H6.73266V15.7427L11.961 10.0707H12.0381L17.2664 15.762V8.31507H23.2471C21.7037 3.58838 17.2471 0.154297 11.9995 0.154297Z" fill="#FFCD05"/>
<path d="M6.56007 16.1672V8.48875H0.521484L0.598655 8.27653C2.19994 3.31833 6.79158 0 12.0006 0C17.2096 0 21.8012 3.31833 23.4025 8.27653L23.4797 8.48875H17.4411V16.1672L12.0006 10.283L6.56007 16.1672ZM11.9041 9.9164H12.1163L17.1131 15.3376V8.16077H23.036C21.3961 3.47267 16.9974 0.327974 12.0006 0.327974C7.0038 0.327974 2.60509 3.47267 0.965214 8.16077H6.88804V15.3376L11.9041 9.9164Z" fill="#D0509D"/>
<path d="M18.2473 18.2508L16.5495 16.418L11.9965 11.4791L7.4434 16.418L5.74565 18.2508V15.762V9.5498H1.59774C1.40482 10.3601 1.28906 11.209 1.28906 12.0964C1.28906 18 6.07363 22.8038 11.9965 22.8038C17.9193 22.8038 22.7039 18.0193 22.7039 12.0964C22.7039 11.2283 22.5881 10.3794 22.3952 9.5498H18.228V15.762V18.2508H18.2473Z" fill="#D0519D"/>
</svg>
